packages/react-icons/icons/person-arrow.svg

<svg width="24" height="24" viewBox="0 0 24 24" xmlns="http://www.w3.org/2000/svg"><path fill-rule="evenodd" clip-rule="evenodd" d="M10.0686 2.29021C11.989 1.90821 13.9796 2.10427 15.7885 2.85357C17.5975 3.60288 19.1437 4.87179 20.2315 6.49984C21.3194 8.12788 21.9 10.0419 21.9 12C21.9 12.497 21.497 12.9 21 12.9C20.5029 12.9 20.1 12.497 20.1 12C20.1 10.3979 19.6249 8.8319 18.7349 7.49986C17.8448 6.16782 16.5798 5.12963 15.0997 4.51656C13.6196 3.90349 11.991 3.74308 10.4197 4.05562C8.8485 4.36816 7.40522 5.13961 6.27242 6.27242C5.13961 7.40522 4.36816 8.8485 4.05562 10.4197C3.74308 11.991 3.90349 13.6196 4.51656 15.0997C4.75595 15.6777 5.06016 16.2228 5.42138 16.7257C7.12062 15.1001 9.42669 14.1 11.9653 14.1C12.7387 14.1 13.4916 14.1929 14.213 14.3686C14.6959 14.4863 14.992 14.9731 14.8744 15.4561C14.7568 15.939 14.2699 16.2351 13.787 16.1175C13.204 15.9755 12.594 15.9 11.9653 15.9C9.89062 15.9 8.00933 16.723 6.62815 18.0624C6.90207 18.3052 7.19318 18.53 7.49986 18.7349C8.8319 19.6249 10.398 20.1 12 20.1C12.497 20.1 12.9 20.5029 12.9 21C12.9 21.497 12.497 21.9 12 21.9C10.0419 21.9 8.12788 21.3194 6.49984 20.2315C4.87179 19.1437 3.60288 17.5975 2.85357 15.7885C2.10427 13.9796 1.90821 11.989 2.29021 10.0686C2.6722 8.14817 3.61508 6.38416 4.99962 4.99962C6.38416 3.61508 8.14817 2.6722 10.0686 2.29021ZM10.0265 9.98484C10.0265 8.89521 10.9099 8.01189 11.9995 8.01189C13.0891 8.01189 13.9724 8.89521 13.9724 9.98484C13.9724 11.0745 13.0891 11.9578 11.9995 11.9578C10.9099 11.9578 10.0265 11.0745 10.0265 9.98484ZM11.9995 6.41189C10.0262 6.41189 8.42654 8.01155 8.42654 9.98484C8.42654 11.9581 10.0262 13.5578 11.9995 13.5578C13.9728 13.5578 15.5724 11.9581 15.5724 9.98484C15.5724 8.01155 13.9728 6.41189 11.9995 6.41189ZM14.1 18C14.1 17.5029 14.5029 17.1 15 17.1H18.8272L17.3636 15.6364C17.0121 15.2849 17.0121 14.7151 17.3636 14.3636C17.7151 14.0121 18.2849 14.0121 18.6364 14.3636L21.6364 17.3636C21.9878 17.7151 21.9878 18.2849 21.6364 18.6364L18.6364 21.6364C18.2849 21.9878 17.7151 21.9878 17.3636 21.6364C17.0121 21.2849 17.0121 20.7151 17.3636 20.3636L18.8272 18.9H15C14.5029 18.9 14.1 18.497 14.1 18Z"/></svg>

<svg xmlns="http://www.w3.org/2000/svg" width="24" height="24"><path fill-rule="evenodd" d="M10.069 2.29A9.9 9.9 0 0 1 21.9 12a.9.9 0 0 1-1.8 0 8.1 8.1 0 1 0-14.679 4.726 9.438 9.438 0 0 1 6.544-2.626 9.49 9.49 0 0 1 2.248.269.9.9 0 0 1-.426 1.748 7.69 7.69 0 0 0-1.822-.217 7.64 7.64 0 0 0-5.337 2.162A8.087 8.087 0 0 0 12 20.1a.9.9 0 0 1 0 1.8 9.9 9.9 0 0 1-1.931-19.61Zm-.043 7.695a1.973 1.973 0 1 1 3.947 0 1.973 1.973 0 0 1-3.947 0ZM12 6.412a3.573 3.573 0 1 0 0 7.146 3.573 3.573 0 0 0 0-7.146ZM14.1 18a.9.9 0 0 1 .9-.9h3.827l-1.463-1.464a.9.9 0 1 1 1.272-1.272l3 3a.9.9 0 0 1 0 1.272l-3 3a.9.9 0 0 1-1.272-1.272l1.463-1.464H15a.9.9 0 0 1-.9-.9Z" clip-rule="evenodd"/></svg>
